src/assets/Devices/PS4 Back.svg

<svg width="962" height="599" viewBox="0 0 962 599" fill="none" xmlns="http://www.w3.org/2000/svg">
<path d="M143.489 30.2294C136.818 32.4159 131.607 36.3497 129.373 43.416C126.069 53.8726 118.646 64.3285 110.313 76.067L110.305 76.0786C105.268 83.1737 99.8993 90.7367 94.9067 99.0522C82.689 119.4 70.161 152.922 67.5102 162.636C67.0509 164.318 65.3191 169.734 62.7251 177.847L62.7246 177.849L62.6306 178.143C50.1728 217.096 18.2376 316.953 10.9485 365.752C2.11083 424.921 -1.94406 477.261 12.7165 520.296C26.8565 561.803 67.5102 601.543 115.234 595.362C162.957 589.18 208.029 551.206 231.89 485.856C240.617 461.956 243.788 440.066 246.418 421.91C250.525 393.561 253.313 374.32 273.869 370.763L388.58 370.168H575.122L689.382 371.15C708.209 375.553 710.948 394.463 714.924 421.91C717.554 440.066 720.725 461.956 729.452 485.856C753.314 551.206 798.385 589.18 846.109 595.362C893.832 601.543 934.486 561.803 948.626 520.296C963.286 477.261 959.232 424.921 950.394 365.752C943.105 316.953 911.17 217.096 898.712 178.143L898.639 177.916C896.033 169.764 894.293 164.323 893.832 162.636C891.181 152.922 878.653 119.4 866.436 99.0522C861.444 90.7378 856.076 83.1754 851.04 76.0817L851.029 76.067L851.026 76.0618C842.694 64.3262 835.272 53.8714 831.969 43.416C829.753 36.4034 824.603 32.4758 818.005 30.2795M678.5 27.8457C670.57 28.5596 664.464 30.8391 659.608 38.1172L659.508 38.2675C656.709 42.4687 651.37 50.4811 627.792 50.4811H333.55C309.973 50.4811 304.634 42.469 301.834 38.2678L301.734 38.1172C296.911 30.8874 290.853 28.5901 283 27.8601" stroke="white" stroke-width="6"/>
<path d="M697.613 23.3923L697.342 23.3923C690.212 23.392 683.88 23.3918 678.42 24.9469C678.765 19.2957 679.683 16.2048 681.85 14.0376C685.614 10.274 691.93 7.35813 705.151 4.36674C708.288 3.65681 714.407 3.1212 722.173 2.79175C729.889 2.46447 739.091 2.34503 748.307 2.43175C757.524 2.51848 766.736 2.81122 774.474 3.30598C782.267 3.80431 788.408 4.49953 791.58 5.35001C792.978 5.72475 794.296 6.07428 795.541 6.40437C800.34 7.67731 804.05 8.66103 807.038 9.68623C810.771 10.9666 813.152 12.2416 814.948 14.0376C816.813 15.9018 817.575 16.9549 818.011 18.8167C818.42 20.5692 818.535 23.0251 818.565 27.3249C813.809 25.4876 808.312 24.5143 802.47 23.9907C795.543 23.3698 787.982 23.3712 780.405 23.3882C780.405 23.3882 780.405 23.3882 780.405 23.3882L779.859 23.3893L779.856 23.3893C779.149 23.3908 778.448 23.3923 777.753 23.3923H697.613Z" stroke="white" stroke-width="3.53831"/>
<path d="M263.201 23.3918L263.473 23.3918C270.602 23.3915 276.934 23.3913 282.395 24.9464C282.05 19.2953 281.132 16.2043 278.964 14.0371C275.201 10.2735 268.885 7.35764 255.664 4.36625C252.526 3.65632 246.408 3.12071 238.641 2.79126C230.926 2.46398 221.724 2.34454 212.507 2.43126C203.291 2.51799 194.078 2.81074 186.341 3.3055C178.548 3.80382 172.406 4.49904 169.234 5.34952C167.837 5.72426 166.519 6.07379 165.274 6.40388C160.474 7.67682 156.765 8.66054 153.776 9.68575C150.043 10.9662 147.662 12.2411 145.866 14.0371C144.002 15.9013 143.239 16.9545 142.804 18.8162C142.394 20.5687 142.279 23.0246 142.249 27.3244C147.005 25.4871 152.502 24.5138 158.344 23.9902C165.272 23.3693 172.832 23.3707 180.409 23.3877C180.409 23.3877 180.41 23.3877 180.41 23.3877L180.955 23.3888L180.959 23.3889C181.666 23.3903 182.366 23.3918 183.061 23.3918H263.201Z" stroke="white" stroke-width="3.53831"/>
<path d="M330.883 395.265C307.15 395.265 285.639 386.716 269.913 372.855H391.853C376.127 386.716 354.616 395.265 330.883 395.265Z" stroke="white" stroke-width="1.17944"/>
<path d="M630.459 395.265C606.726 395.265 585.215 386.716 569.489 372.855H691.43C675.704 386.716 654.192 395.265 630.459 395.265Z" stroke="white" stroke-width="1.17944"/>
<path opacity="0.5" d="M454.135 307.628C454.135 305.674 455.719 304.09 457.673 304.09H502.491C504.446 304.09 506.03 305.674 506.03 307.628C506.03 309.582 504.446 311.166 502.491 311.166H457.673C455.719 311.166 454.135 309.582 454.135 307.628Z" stroke="white" stroke-width="1.17944"/>
<path opacity="0.5" d="M473.006 307.628C473.006 305.674 474.59 304.09 476.544 304.09H484.8C486.754 304.09 488.338 305.674 488.338 307.628C488.338 309.582 486.754 311.166 484.8 311.166H476.544C474.59 311.166 473.006 309.582 473.006 307.628Z" fill="white" stroke="white" stroke-width="1.17944"/>
<path opacity="0.5" d="M476.543 261.04C476.543 258.76 478.391 256.912 480.671 256.912C482.951 256.912 484.799 258.76 484.799 261.04C484.799 263.32 482.951 265.168 480.671 265.168C478.391 265.168 476.543 263.32 476.543 261.04Z" fill="white" stroke="white" stroke-width="1.17944"/>
<path d="M357.492 282.27H604.511C664.558 282.27 694.582 282.27 713.236 300.924C731.89 319.579 731.89 330.731 731.89 390.778V400.73C732.02 404.73 732.148 410.903 732.276 417.057L732.276 417.07L732.277 417.075C732.479 426.8 732.68 436.476 732.883 437.469C735.213 448.884 737.705 461.092 743.684 477.467C757.896 516.388 791.757 553.54 831.968 561.796C866.435 568.873 897.534 554.72 922.958 524.054C954.214 481.005 959.231 424.921 950.393 365.752C943.105 316.959 911.176 217.118 898.716 178.156L898.715 178.155L898.714 178.151L898.713 178.147L898.712 178.146L898.711 178.143L898.711 178.141L898.704 178.119C896.061 169.855 894.296 164.337 893.832 162.636C891.181 152.922 878.653 119.4 866.435 99.0521C861.44 90.7325 856.068 83.1654 851.028 76.0671C842.695 64.3287 835.272 53.8725 831.968 43.4163C826.916 27.4309 806.624 27.4762 788.668 27.5163C787.776 27.5182 786.89 27.5202 786.012 27.5202H690.539C676.399 27.5202 666.678 27.5202 659.608 38.1176L659.507 38.2678C656.708 42.4685 651.369 50.4811 627.792 50.4811H334.212C310.634 50.4811 305.295 42.4685 302.496 38.2678L302.396 38.1176C295.326 27.5202 285.604 27.5202 271.464 27.5202H175.991C175.113 27.5202 174.227 27.5182 173.336 27.5163C155.379 27.4762 135.087 27.4309 130.035 43.4163C126.731 53.8725 119.308 64.3287 110.975 76.0671C105.936 83.1654 100.564 90.7325 95.5685 99.0521C83.3508 119.4 70.823 152.922 68.1717 162.636C67.7075 164.337 65.9428 169.855 63.2999 178.119L63.2928 178.141L63.2921 178.143L63.2915 178.146L63.291 178.147L63.2897 178.151L63.2885 178.155C50.8287 217.115 18.8985 316.958 11.6105 365.752C2.77277 424.921 7.78997 481.005 39.045 524.054C64.4692 554.72 95.5685 568.873 130.035 561.796C170.247 553.54 204.107 516.388 218.319 477.467C224.298 461.092 226.79 448.884 229.121 437.469C229.323 436.476 229.525 426.796 229.727 417.07C229.855 410.911 229.984 404.733 230.113 400.73V390.778C230.113 330.731 230.113 319.579 248.768 300.924C267.422 282.27 297.445 282.27 357.492 282.27Z" stroke="white" stroke-width="1.17944"/>
<path d="M521.367 119.443C494.966 126.833 467.042 126.833 440.641 119.443L359.694 96.7862C353.256 94.9842 354.558 85.4991 361.244 85.4991L600.764 85.499C607.45 85.499 608.752 94.9841 602.314 96.7862L521.367 119.443Z" stroke="white" stroke-width="0.5"/>
<path d="M341.803 68.1794C332.614 68.1794 325.164 60.7299 325.164 51.5404C325.164 49.7113 326.647 48.2286 328.476 48.2286H623.788C625.617 48.2286 627.1 49.7113 627.1 51.5404C627.1 60.7299 619.65 68.1794 610.461 68.1794H341.803Z" stroke="white" stroke-width="2.35887"/>
<path d="M170.5 50.25C161.5 37.25 147.583 31.25 143.75 30.25L145.75 39.75C145.75 41.5 157.25 44.75 167 59.75C181.468 82.008 229.25 77.75 245.75 62.75C258.95 50.75 267.75 42.5 282.5 35.75V27C259.25 35.5 254.45 40.8 241.25 52C224.75 66 181.75 66.5 170.5 50.25Z" stroke="white"/>
<path d="M791.066 50.25C800.066 37.25 813.983 31.25 817.816 30.25L815.816 39.75C815.816 41.5 804.317 44.75 794.566 59.75C780.098 82.008 732.316 77.75 715.816 62.75C702.616 50.75 693.816 42.5 679.066 35.75V27C702.316 35.5 707.116 40.8 720.316 52C736.816 66 779.816 66.5 791.066 50.25Z" stroke="white"/>
<path d="M143.488 29.3837C143.794 32.1674 144.242 34.9354 144.832 37.6771L151.726 69.7318C158.302 100.315 185.339 122.155 216.62 122.155C253.28 122.155 282.999 92.4359 282.999 55.7757V27.0144M818.004 29.4338C817.699 32.2005 817.252 34.9518 816.666 37.6771L809.773 69.7318C803.196 100.315 776.159 122.155 744.878 122.155C708.218 122.155 678.499 92.4359 678.499 55.7757V27" stroke="white" stroke-width="3"/>
<path d="M697.613 24.7575L697.342 24.7575C690.212 24.7572 683.88 24.757 678.42 26.3121C678.765 20.661 679.683 17.5701 681.85 15.4028C685.614 11.6392 691.93 8.72337 705.151 5.73197C708.288 5.02204 714.407 4.48644 722.173 4.15698C729.889 3.8297 739.091 3.71026 748.307 3.79699C757.524 3.88372 766.736 4.17646 774.474 4.67122C782.267 5.16954 788.408 5.86477 791.58 6.71524C792.978 7.08999 794.296 7.43952 795.541 7.7696C800.34 9.04254 804.05 10.0263 807.038 11.0515C810.771 12.3319 813.152 13.6069 814.948 15.4028C816.813 17.267 817.575 18.3202 818.011 20.182C818.42 21.9344 818.535 24.3903 818.565 28.6901C813.809 26.8528 808.312 25.8795 802.47 25.3559C795.543 24.735 787.982 24.7365 780.405 24.7535C780.405 24.7535 780.405 24.7535 780.405 24.7535L779.859 24.7546L779.856 24.7546C779.149 24.756 778.448 24.7575 777.753 24.7575H697.613Z" stroke="white" stroke-width="3.53831"/>
<path d="M263.201 24.757L263.473 24.757C270.602 24.7568 276.934 24.7565 282.395 26.3116C282.05 20.6605 281.132 17.5696 278.964 15.4023C275.201 11.6387 268.885 8.72288 255.664 5.73148C252.526 5.02156 246.408 4.48595 238.641 4.15649C230.926 3.82921 221.724 3.70977 212.507 3.7965C203.291 3.88323 194.078 4.17597 186.341 4.67073C178.548 5.16905 172.406 5.86428 169.234 6.71475C167.837 7.0895 166.519 7.43903 165.274 7.76911C160.474 9.04205 156.765 10.0258 153.776 11.051C150.043 12.3314 147.662 13.6064 145.866 15.4023C144.002 17.2665 143.239 18.3197 142.804 20.1815C142.394 21.934 142.279 24.3898 142.249 28.6896C147.005 26.8523 152.502 25.879 158.344 25.3554C165.272 24.7345 172.832 24.736 180.409 24.753C180.409 24.753 180.41 24.753 180.41 24.753L180.955 24.7541L180.959 24.7541C181.666 24.7556 182.366 24.757 183.061 24.757H263.201Z" stroke="white" stroke-width="3.53831"/>
</svg>

<svg width="962" height="599" fill="none" xmlns="http://www.w3.org/2000/svg"><path d="M851.04 76.081c5.036 7.094 10.404 14.657 15.396 22.97 12.217 20.348 24.745 53.871 27.396 63.585.461 1.687 2.201 7.128 4.807 15.28l.073.227c12.458 38.953 44.393 138.81 51.682 187.609 8.838 59.168 12.892 111.509-1.768 154.544-14.14 41.507-54.794 81.247-102.517 75.065-47.724-6.181-92.795-44.155-116.657-109.506-8.727-23.899-11.898-45.79-14.528-63.945-3.976-27.448-6.715-46.357-25.542-50.76l-114.26-.982H388.58l-114.711.595c-20.556 3.556-23.344 22.798-27.451 51.147-2.63 18.155-5.801 40.046-14.528 63.945-23.861 65.351-68.933 103.325-116.656 109.506-47.724 6.182-88.377-33.558-102.517-75.065-14.661-43.035-10.606-95.376-1.769-154.544 7.29-48.799 39.225-148.656 51.683-187.609l.094-.294v-.004c2.594-8.112 4.326-13.527 4.785-15.209 2.651-9.714 15.179-43.237 27.397-63.584 4.992-8.316 10.361-15.879 15.398-22.974l740.735.003Zm0 0-.011-.014-.003-.005c-8.332-11.736-15.754-22.19-19.057-32.646-2.051-6.49-6.614-10.338-12.513-12.616l.04-.356-1.491-.165-.474 1.424.292.098m33.217 44.28-33.217-44.28m0 0a81.989 81.989 0 0 1-1.156 6.722l-6.894 32.054C803.197 101.16 776.16 123 744.879 123c-36.66 0-66.379-29.719-66.379-66.379v-27.27l.135-.012-.135-1.493H677v.157c-7.206.869-12.847 3.302-17.392 10.114l-.1.15c-2.799 4.201-8.138 12.214-31.716 12.214H333.55c-23.577 0-28.916-8.012-31.716-12.213l-.1-.151c-4.512-6.763-10.103-9.21-17.234-10.095v-.162H283l-.139 1.493c.047.005.093.01.139.013v27.255C283 93.281 253.281 123 216.621 123c-31.281 0-58.318-21.84-64.894-52.423l-6.894-32.054 672.99-6.722ZM144.98 30.065l-.202-1.837-1.756.576c-6.981 2.288-12.658 6.501-15.079 14.16l1.43.452-1.43-.452c-3.218 10.185-10.476 20.434-18.853 32.234l-.008.012h-.001l-.012.019c-5.029 7.084-10.426 14.686-15.448 23.05-12.302 20.488-24.878 54.142-27.558 63.962-.448 1.641-2.164 7.008-4.767 15.149v.003l-.001.002-.093.291v.001l-.018.056C48.733 216.675 16.774 316.604 9.465 365.53c-8.836 59.157-12.96 111.832 1.832 155.25 7.157 21.01 21.016 41.564 39.146 56.102 18.14 14.546 40.631 23.121 64.983 19.967 48.421-6.272 93.874-44.752 117.873-110.479 8.782-24.049 11.971-46.071 14.6-64.218l.004-.027c2.064-14.25 3.766-25.918 7.45-34.494 1.827-4.252 4.111-7.664 7.106-10.222 2.961-2.529 6.694-4.289 11.544-5.147l114.577-.594h186.542l114.078.981c8.731 2.092 13.754 7.481 17.132 15.803 3.452 8.502 5.11 19.881 7.108 33.673l.004.026c2.628 18.148 5.817 40.169 14.599 64.219 23.999 65.727 69.453 104.207 117.873 110.479 24.352 3.154 46.843-5.421 64.983-19.967 18.13-14.538 31.989-35.092 39.147-56.102 14.791-43.418 10.667-96.093 1.831-155.25-7.308-48.926-39.267-148.855-51.718-187.787l-.018-.057-.073-.227c-2.616-8.18-4.339-13.572-4.789-15.218-2.679-9.819-15.256-43.474-27.557-63.961-5.022-8.365-10.419-15.967-15.447-23.05l-.011-.016h-.001l-.004-.006-.01-.015c-8.376-11.797-15.632-22.046-18.85-32.23-2.402-7.599-8.011-11.807-14.92-14.107l-1.761-.586-.204 1.845a80.65 80.65 0 0 1-1.313 8.092l-6.894 32.055c-6.428 29.892-32.854 51.238-63.428 51.238C709.047 121.5 680 92.453 680 56.621V26.205l-1.635.147c-4.063.365-7.779 1.141-11.137 2.827-3.378 1.696-6.309 4.27-8.867 8.106h-.001l-.1.15c-1.363 2.046-3.232 4.848-7.537 7.198-4.342 2.37-11.301 4.348-22.931 4.348H333.55c-11.63 0-18.588-1.978-22.931-4.348-4.304-2.35-6.173-5.152-7.536-7.197h-.001l-.1-.151c-2.541-3.81-5.451-6.375-8.801-8.072-3.331-1.687-7.015-2.472-11.042-2.847l-1.639-.152v30.407c0 35.832-29.047 64.879-64.879 64.879-30.574 0-57-21.346-63.428-51.238l-6.894-32.055a80.446 80.446 0 0 1-1.319-8.142Z" stroke="#fff" stroke-width="3"/><path d="M143.489 30.23c-6.671 2.186-11.882 6.12-14.116 13.186-3.304 10.457-10.727 20.913-19.06 32.651l-.008.012c-5.037 7.095-10.406 14.658-15.398 22.973-12.218 20.348-24.746 53.87-27.397 63.584-.46 1.682-2.19 7.098-4.785 15.211v.002l-.094.294c-12.458 38.953-44.393 138.81-51.683 187.609-8.837 59.169-12.892 111.509 1.768 154.544 14.14 41.507 54.794 81.247 102.518 75.066 47.723-6.182 92.795-44.156 116.656-109.506 8.727-23.9 11.898-45.79 14.528-63.946 4.107-28.349 6.895-47.59 27.451-51.147l114.711-.595h186.542l114.26.982c18.827 4.403 21.566 23.313 25.542 50.76 2.63 18.156 5.801 40.046 14.528 63.946 23.862 65.35 68.933 103.324 116.657 109.506 47.723 6.181 88.377-33.559 102.517-75.066 14.66-43.035 10.606-95.375 1.768-154.544-7.289-48.799-39.224-148.656-51.682-187.609l-.073-.227c-2.606-8.152-4.346-13.593-4.807-15.28-2.651-9.714-15.179-43.236-27.396-63.584-4.992-8.314-10.36-15.877-15.396-22.97l-.011-.015-.003-.005c-8.332-11.736-15.754-22.19-19.057-32.646-2.216-7.013-7.366-10.94-13.964-13.136M678.5 27.845c-7.93.714-14.036 2.993-18.892 10.271l-.1.15c-2.799 4.202-8.138 12.214-31.716 12.214H333.55c-23.577 0-28.916-8.012-31.716-12.213l-.1-.15c-4.823-7.23-10.881-9.528-18.734-10.258" stroke="#fff" stroke-width="6"/><path d="M697.613 23.392h-.271c-7.13 0-13.462 0-18.922 1.555.345-5.651 1.263-8.742 3.43-10.91 3.764-3.763 10.08-6.679 23.301-9.67 3.137-.71 9.256-1.246 17.022-1.575 7.716-.328 16.918-.447 26.134-.36 9.217.086 18.429.38 26.167.874 7.793.498 13.934 1.194 17.106 2.044 1.398.375 2.716.724 3.961 1.054 4.799 1.273 8.509 2.257 11.497 3.282 3.733 1.28 6.114 2.556 7.91 4.352 1.865 1.864 2.627 2.917 3.063 4.779.409 1.752.524 4.208.554 8.508-4.756-1.837-10.253-2.81-16.095-3.334-6.927-.621-14.488-.62-22.065-.603l-.546.001h-.003l-2.103.003h-80.14Zm-434.413 0h.272c7.129 0 13.461 0 18.922 1.554-.345-5.65-1.263-8.742-3.431-10.909-3.763-3.764-10.079-6.68-23.3-9.67-3.138-.71-9.256-1.246-17.023-1.576-7.715-.327-16.917-.446-26.133-.36-9.217.087-18.43.38-26.167.874-7.793.499-13.935 1.194-17.107 2.045-1.397.374-2.715.724-3.96 1.054-4.8 1.273-8.509 2.257-11.498 3.282-3.733 1.28-6.114 2.555-7.91 4.351-1.864 1.864-2.627 2.917-3.062 4.78-.41 1.752-.525 4.208-.555 8.507 4.756-1.837 10.253-2.81 16.095-3.334 6.928-.62 14.488-.62 22.065-.602h.55c.707.002 1.407.004 2.102.004h80.14Z" stroke="#fff" stroke-width="3.538"/><path d="M330.883 395.265c-23.733 0-45.244-8.549-60.97-22.41h121.94c-15.726 13.861-37.237 22.41-60.97 22.41Zm299.576 0c-23.733 0-45.244-8.549-60.97-22.41H691.43c-15.726 13.861-37.238 22.41-60.971 22.41Z" stroke="#fff" stroke-width="1.179"/><path opacity=".5" d="M454.134 307.628a3.538 3.538 0 0 1 3.538-3.538h44.819a3.538 3.538 0 1 1 0 7.076h-44.819a3.538 3.538 0 0 1-3.538-3.538Z" stroke="#fff" stroke-width="1.179"/><path opacity=".5" d="M473.005 307.628a3.538 3.538 0 0 1 3.538-3.538h8.256a3.538 3.538 0 1 1 0 7.076h-8.256a3.538 3.538 0 0 1-3.538-3.538Zm3.538-46.588a4.128 4.128 0 1 1 8.256 0 4.128 4.128 0 0 1-8.256 0Z" fill="#fff" stroke="#fff" stroke-width="1.179"/><path d="M357.493 282.27h247.019c60.047 0 90.071 0 108.725 18.654 18.654 18.655 18.654 29.807 18.654 89.854v9.952c.13 4 .258 10.173.386 16.327v.013l.001.005c.202 9.725.403 19.401.606 20.394 2.33 11.415 4.822 23.623 10.801 39.998 14.212 38.921 48.073 76.073 88.284 84.329 34.467 7.077 65.566-7.076 90.99-37.742 31.255-43.049 36.273-99.133 27.435-158.302-7.288-48.793-39.217-148.634-51.677-187.596l-.001-.001-.001-.004-.002-.004v-.001l-.001-.003v-.002l-.007-.022c-2.643-8.264-4.408-13.782-4.872-15.483-2.651-9.714-15.179-43.236-27.397-63.584-4.996-8.32-10.367-15.887-15.407-22.985-8.333-11.738-15.756-22.194-19.06-32.65-5.052-15.986-25.344-15.94-43.3-15.9l-2.656.003H690.54c-14.14 0-23.861 0-30.931 10.598l-.101.15c-2.799 4.2-8.138 12.213-31.715 12.213h-293.58c-23.578 0-28.917-8.013-31.716-12.213l-.1-.15c-7.07-10.598-16.792-10.598-30.932-10.598h-95.473c-.878 0-1.764-.002-2.655-.004-17.957-.04-38.249-.085-43.301 15.9-3.304 10.457-10.727 20.913-19.06 32.651-5.039 7.098-10.411 14.666-15.406 22.985-12.218 20.348-24.746 53.87-27.397 63.584-.465 1.701-2.23 7.219-4.872 15.483l-.007.022v.002l-.002.003v.001l-.001.004-.002.004c-12.46 38.96-44.39 138.803-51.678 187.597-8.837 59.169-3.82 115.253 27.435 158.302 25.424 30.666 56.524 44.819 90.99 37.742 40.212-8.256 74.072-45.408 88.284-84.329 5.979-16.375 8.471-28.583 10.801-39.998.203-.993.405-10.673.607-20.399.128-6.159.257-12.337.386-16.34v-9.952c0-60.047 0-71.199 18.655-89.854 18.654-18.654 48.677-18.654 108.724-18.654Z" stroke="#fff" stroke-width="1.179"/><path d="M521.366 119.443a149.742 149.742 0 0 1-80.726 0l-80.947-22.657c-6.438-1.802-5.136-11.287 1.55-11.287h239.52c6.686 0 7.988 9.485 1.55 11.287l-80.947 22.657Z" stroke="#fff" stroke-width=".5"/><path d="M341.804 68.18c-9.189 0-16.639-7.45-16.639-16.64a3.312 3.312 0 0 1 3.312-3.311h295.312a3.312 3.312 0 0 1 3.312 3.311c0 9.19-7.45 16.64-16.639 16.64H341.804Z" stroke="#fff" stroke-width="2.359"/><path d="M170.5 50.25c-9-13-22.917-19-26.75-20l2 9.5c0 1.75 11.5 5 21.25 20 14.468 22.258 62.25 18 78.75 3 13.2-12 22-20.25 36.75-27V27c-23.25 8.5-28.05 13.8-41.25 25-16.5 14-59.5 14.5-70.75-1.75Zm620.565 0c9-13 22.917-19 26.75-20l-2 9.5c0 1.75-11.499 5-21.25 20-14.468 22.258-62.25 18-78.75 3-13.2-12-22-20.25-36.75-27V27c23.25 8.5 28.05 13.8 41.25 25 16.5 14 59.5 14.5 70.75-1.75Z" stroke="#fff"/></svg>
